; generated by Slic3r 0.9.8 on 2013-01-29 at 14:04:29

; layer_height = 0.4
; perimeters = 3
; top_solid_layers = 3
; bottom_solid_layers = 3
; fill_density = 0.4
; perimeter_speed = 30
; infill_speed = 60
; travel_speed = 130
; scale = 1
; nozzle_diameter = 0.5
; filament_diameter = 3
; extrusion_multiplier = 1
; perimeters extrusion width = 0.53mm
; infill extrusion width = 0.53mm
; first layer extrusion width = 0.80mm

M107
M104 S200 ; set temperature
G28 ; home all axes
M109 S200 ; wait for temperature to be reached
G90 ; use absolute coordinates
G21 ; set units to millimeters
G92 E0
M82 ; use absolute distances for extrusion
G1 F1800.000 E-1.00000
G92 E0
G1 Z0.400 F7800.000
G1 X129.415 Y127.052
G1 F1800.000 E1.00000
G1 X125.915 Y130.422 F540.000 E1.20226
G1 X125.165 Y131.052 E1.24303
G1 X121.215 Y133.882 E1.44530
G1 X120.375 Y134.392 E1.48621
G1 X116.055 Y136.612 E1.68840
G1 X115.155 Y136.992 E1.72907
G1 X110.555 Y138.562 E1.93140
G1 X109.595 Y138.812 E1.97269
G1 X104.825 Y139.692 E2.17461
G1 X103.855 Y139.802 E2.21524
G1 X98.995 Y139.982 E2.41769
G1 X97.995 Y139.942 E2.45935
G1 X93.165 Y139.402 E2.66167
G1 X92.225 Y139.232 E2.70143
G1 X87.525 Y138.012 E2.90357
G1 X86.585 Y137.692 E2.94490
G1 X82.115 Y135.792 E3.14709
G1 X81.235 Y135.342 E3.18823
G1 X77.095 Y132.812 E3.39020
G1 X76.295 Y132.242 E3.43109
G1 X72.555 Y129.132 E3.63357
G1 X71.845 Y128.442 E3.67479
G1 X68.605 Y124.822 E3.87702
G1 X68.005 Y124.052 E3.91766
G1 X65.325 Y120.002 E4.11982
G1 X64.845 Y119.142 E4.16082
G1 X62.785 Y114.742 E4.36306
G1 X62.435 Y113.822 E4.40403
G1 X61.035 Y109.172 E4.60618
G1 X60.825 Y108.212 E4.64709
G1 X60.115 Y103.402 E4.84949
G1 X60.035 Y102.422 E4.89042
G1 X60.035 Y97.562 E5.09273
G1 X60.115 Y96.572 E5.13408
G1 X60.825 Y91.772 E5.33606
G1 X61.035 Y90.822 E5.37656
G1 X62.435 Y86.172 E5.57871
G1 X62.785 Y85.252 E5.61969
G1 X64.845 Y80.852 E5.82193
G1 X65.325 Y79.992 E5.86293
G1 X68.005 Y75.942 E6.06509
G1 X68.605 Y75.172 E6.10573
G1 X71.845 Y71.552 E6.30796
G1 X72.555 Y70.862 E6.34917
G1 X76.295 Y67.752 E6.55166
G1 X77.095 Y67.182 E6.59255
G1 X81.235 Y64.652 E6.79452
G1 X82.115 Y64.202 E6.83566
G1 X86.585 Y62.302 E7.03785
G1 X87.505 Y61.982 E7.07840
G1 X92.205 Y60.752 E7.28063
G1 X93.185 Y60.572 E7.32211
G1 X98.014 Y60.042 E7.52438
G1 X98.995 Y60.012 E7.56519
G1 X103.855 Y60.192 E7.76764
G1 X104.825 Y60.302 E7.80828
G1 X109.595 Y61.182 E8.01019
G1 X110.555 Y61.432 E8.05149
G1 X115.155 Y63.002 E8.25382
G1 X116.055 Y63.382 E8.29449
G1 X120.375 Y65.602 E8.49668
G1 X121.215 Y66.112 E8.53758
G1 X125.165 Y68.942 E8.73986
G1 X125.915 Y69.572 E8.78063
G1 X129.415 Y72.942 E8.98289
G1 X130.075 Y73.672 E9.02385
G1 X133.045 Y77.512 E9.22594
G1 X133.584 Y78.332 E9.26681
G1 X135.964 Y82.572 E9.46921
G1 X136.385 Y83.472 E9.51056
G1 X138.115 Y88.012 E9.71280
G1 X138.394 Y88.942 E9.75323
G1 X139.455 Y93.682 E9.95542
G1 X139.605 Y94.662 E9.99669
G1 X139.955 Y99.502 E10.19869
G1 X139.955 Y100.472 E10.23907
G1 X139.605 Y105.322 E10.44149
G1 X139.455 Y106.312 E10.48317
G1 X138.394 Y111.052 E10.68536
G1 X138.115 Y111.982 E10.72579
G1 X136.385 Y116.522 E10.92804
G1 X135.964 Y117.422 E10.96938
G1 X133.584 Y121.652 E11.17142
G1 X133.045 Y122.462 E11.21195
G1 X130.075 Y126.312 E11.41436
G1 X129.488 Y126.970 E11.45104
G1 X129.415 Y127.052 E11.45563
G1 F1800.000 E10.45563
G92 E0
G1 X113.496 Y91.261 F7800.000
G1 F1800.000 E1.00000
G1 X111.373 Y92.145 F540.000 E1.09575
G1 X109.089 Y92.424 E1.19150
G1 X106.816 Y92.076 E1.28726
G1 X104.720 Y91.128 E1.38301
G1 X102.958 Y89.649 E1.47876
G1 X101.660 Y87.750 E1.57451
G1 X100.923 Y85.571 E1.67026
G1 X100.801 Y83.274 E1.76602
G1 X101.251 Y81.259 E1.85196
G1 X101.303 Y81.030 E1.86177
G1 X102.392 Y79.004 E1.95752
G1 X103.987 Y77.346 E2.05327
G1 X105.970 Y76.181 E2.14902
G1 X108.195 Y75.594 E2.24478
G1 X110.494 Y75.629 E2.34053
G1 X112.700 Y76.283 E2.43628
G1 X114.580 Y77.467 E2.52877
G1 X121.102 Y82.939 E2.88315
G1 X115.337 Y89.809 E3.25650
G1 X113.583 Y91.193 E3.34950
G1 X113.496 Y91.261 E3.35409
G1 X113.120 Y90.621 F7800.000
G1 X111.183 Y91.427 F540.000 E3.44143
G1 X111.050 Y91.444 E3.44703
G1 X109.101 Y91.681 E3.52876
G1 X107.027 Y91.364 E3.61610
G1 X105.115 Y90.499 E3.70343
G1 X103.508 Y89.151 E3.79076
G1 X102.324 Y87.419 E3.87810
G1 X101.652 Y85.431 E3.96543
G1 X101.541 Y83.336 E4.05277
G1 X101.969 Y81.420 E4.13450
G1 X101.999 Y81.289 E4.14010
G1 X102.992 Y79.441 E4.22744
G1 X104.447 Y77.930 E4.31477
G1 X106.256 Y76.867 E4.40210
G1 X108.284 Y76.331 E4.48944
G1 X110.382 Y76.363 E4.57677
G1 X112.394 Y76.960 E4.66411
G1 X114.146 Y78.062 E4.75029
G1 X120.066 Y83.029 E5.07196
G1 X114.822 Y89.278 E5.41153
G1 X113.207 Y90.552 E5.49718
G1 X113.120 Y90.621 E5.50177
G1 X113.092 Y91.356 F7800.000
G1 X114.671 Y92.487
G1 X114.869 Y92.359 F540.000 E5.51158
G1 X117.064 Y91.671 E5.60733
G1 X119.363 Y91.601 E5.70308
G1 X121.596 Y92.154 E5.79884
G1 X123.597 Y93.289 E5.89459
G1 X125.217 Y94.922 E5.99034
G1 X126.337 Y96.931 E6.08609
G1 X126.873 Y99.168 E6.18184
G1 X126.788 Y101.388 E6.27433
G1 X125.310 Y109.772 E6.62872
G1 X116.478 Y108.215 E7.00206
G1 X114.300 Y107.347 E7.09966
G1 X112.472 Y105.950 E7.19541
G1 X111.090 Y104.112 E7.29116
G1 X110.254 Y101.969 E7.38691
G1 X110.231 Y101.734 E7.39672
G1 X110.027 Y99.680 E7.48267
G1 X110.427 Y97.414 E7.57842
G1 X111.422 Y95.341 E7.67417
G1 X112.941 Y93.613 E7.76992
G1 X114.579 Y92.547 E7.85127
G1 X114.671 Y92.487 E7.85587
G1 X115.073 Y93.104 F7800.000
G1 X115.185 Y93.030 F540.000 E7.86147
G1 X117.187 Y92.403 E7.94880
G1 X119.284 Y92.340 E8.03613
G1 X121.321 Y92.844 E8.12347
G1 X123.146 Y93.879 E8.21080
G1 X124.624 Y95.368 E8.29814
G1 X125.645 Y97.201 E8.38547
G1 X126.134 Y99.241 E8.47281
G1 X126.055 Y101.310 E8.55899
G1 X124.713 Y108.920 E8.88066
G1 X116.680 Y107.504 E9.22023
G1 X114.666 Y106.701 E9.31047
G1 X112.999 Y105.427 E9.39781
G1 X111.738 Y103.750 E9.48514
G1 X110.976 Y101.796 E9.57247
G1 X110.963 Y101.662 E9.57807
G1 X110.769 Y99.708 E9.65981
G1 X111.134 Y97.642 E9.74714
G1 X112.042 Y95.750 E9.83448
G1 X113.427 Y94.174 E9.92181
G1 X114.980 Y93.164 E9.99895
G1 X115.073 Y93.104 E10.00355
G1 X115.033 Y92.369 F7800.000
G1 F1800.000 E9.00355
G92 E0
G1 X111.986 Y108.042 F7800.000
G1 F1800.000 E1.00000
G1 X114.036 Y109.084 F540.000 E1.09575
G1 X115.729 Y110.642 E1.19150
G1 X116.939 Y112.598 E1.28726
G1 X117.576 Y114.808 E1.38301
G1 X117.594 Y117.108 E1.47876
G1 X116.990 Y119.328 E1.57451
G1 X115.810 Y121.302 E1.67026
G1 X114.141 Y122.885 E1.76602
G1 X112.176 Y123.922 E1.85850
G1 X104.176 Y126.834 E2.21289
G1 X101.108 Y118.406 E2.58623
G1 X100.771 Y116.086 E2.68383
G1 X101.067 Y113.804 E2.77958
G1 X101.968 Y111.688 E2.87533
G1 X103.406 Y109.893 E2.97109
G1 X105.275 Y108.552 E3.06684
G1 X107.436 Y107.765 E3.16259
G1 X109.730 Y107.591 E3.25834
G1 X111.877 Y108.020 E3.34950
G1 X111.986 Y108.042 E3.35409
G1 X111.742 Y108.743 F7800.000
G1 X113.612 Y109.694 F540.000 E3.44143
G1 X115.156 Y111.115 E3.52876
G1 X116.260 Y112.899 E3.61610
G1 X116.841 Y114.915 E3.70343
G1 X116.857 Y117.013 E3.79077
G1 X116.307 Y119.037 E3.87810
G1 X115.230 Y120.838 E3.96543
G1 X113.708 Y122.281 E4.05277
G1 X111.877 Y123.248 E4.13895
G1 X104.615 Y125.891 E4.46062
G1 X101.825 Y118.225 E4.80020
G1 X101.514 Y116.080 E4.89043
G1 X101.784 Y113.999 E4.97777
G1 X102.605 Y112.069 E5.06510
G1 X103.917 Y110.431 E5.15244
G1 X105.621 Y109.209 E5.23977
G1 X107.593 Y108.491 E5.32711
G1 X109.685 Y108.332 E5.41444
G1 X111.634 Y108.722 E5.49718
G1 X111.742 Y108.743 E5.50177
G1 X112.320 Y108.288 F7800.000
G1 F1800.000 E4.50177
G92 E0
G1 X98.275 Y112.250 F7800.000
G1 F1800.000 E1.00000
G1 X99.012 Y114.429 F540.000 E1.09575
G1 X99.134 Y116.726 E1.19150
G1 X98.632 Y118.970 E1.28726
G1 X97.543 Y120.996 E1.38301
G1 X95.948 Y122.653 E1.47876
G1 X93.965 Y123.819 E1.57451
G1 X91.741 Y124.406 E1.67026
G1 X89.441 Y124.371 E1.76602
G1 X87.235 Y123.717 E1.86177
G1 X85.355 Y122.533 E1.95426
G1 X78.833 Y117.061 E2.30864
G1 X84.598 Y110.191 E2.68199
G1 X86.439 Y108.739 E2.77958
G1 X88.562 Y107.855 E2.87533
G1 X90.846 Y107.576 E2.97109
G1 X93.119 Y107.924 E3.06684
G1 X95.215 Y108.872 E3.16259
G1 X96.977 Y110.351 E3.25834
G1 X98.213 Y112.159 E3.34950
G1 X98.275 Y112.250 E3.35409
G1 X97.611 Y112.581 F7800.000
G1 X98.283 Y114.569 F540.000 E3.44143
G1 X98.394 Y116.664 E3.52876
G1 X97.936 Y118.711 E3.61610
G1 X96.943 Y120.559 E3.70343
G1 X95.488 Y122.070 E3.79076
G1 X93.679 Y123.133 E3.87810
G1 X91.651 Y123.669 E3.96543
G1 X89.553 Y123.637 E4.05277
G1 X87.541 Y123.040 E4.14010
G1 X85.789 Y121.938 E4.22629
G1 X79.869 Y116.971 E4.54796
G1 X85.113 Y110.722 E4.88753
G1 X86.815 Y109.379 E4.97777
G1 X88.752 Y108.573 E5.06510
G1 X90.834 Y108.319 E5.15244
G1 X92.908 Y108.636 E5.23977
G1 X94.820 Y109.501 E5.32711
G1 X96.427 Y110.849 E5.41444
G1 X97.548 Y112.490 E5.49718
G1 X97.611 Y112.581 E5.50177
G1 X98.342 Y112.659 F7800.000
G1 F1800.000 E4.50177
G92 E0
G1 X88.513 Y104.659 F7800.000
G1 F1800.000 E1.00000
G1 X86.994 Y106.387 F540.000 E1.09575
G1 X85.066 Y107.641 E1.19150
G1 X82.871 Y108.329 E1.28725
G1 X80.572 Y108.399 E1.38301
G1 X78.339 Y107.846 E1.47876
G1 X78.134 Y107.729 E1.48857
G1 X76.338 Y106.711 E1.57451
G1 X74.718 Y105.078 E1.67026
G1 X73.598 Y103.069 E1.76602
G1 X73.062 Y100.832 E1.86177
G1 X73.147 Y98.612 E1.95426
G1 X74.625 Y90.228 E2.30864
G1 X83.457 Y91.785 E2.68199
G1 X85.635 Y92.653 E2.77958
G1 X87.463 Y94.050 E2.87533
G1 X88.845 Y95.888 E2.97109
G1 X89.681 Y98.031 E3.06684
G1 X89.908 Y100.320 E3.16259
G1 X89.508 Y102.586 E3.25834
G1 X88.560 Y104.560 E3.34950
G1 X88.513 Y104.659 E3.35409
G1 X87.893 Y104.250 F7800.000
G1 X86.508 Y105.826 F540.000 E3.44143
G1 X84.750 Y106.970 E3.52876
G1 X82.748 Y107.597 E3.61610
G1 X80.651 Y107.660 E3.70343
G1 X78.614 Y107.156 E3.79076
G1 X78.497 Y107.090 E3.79636
G1 X76.789 Y106.121 E3.87810
G1 X75.311 Y104.632 E3.96543
G1 X74.290 Y102.799 E4.05277
G1 X73.801 Y100.759 E4.14010
G1 X73.880 Y98.690 E4.22629
G1 X75.222 Y91.080 E4.54796
G1 X83.255 Y92.496 E4.88753
G1 X85.269 Y93.299 E4.97777
G1 X86.936 Y94.573 E5.06510
G1 X88.197 Y96.250 E5.15244
G1 X88.959 Y98.204 E5.23977
G1 X89.166 Y100.292 E5.32711
G1 X88.801 Y102.358 E5.41444
G1 X87.941 Y104.150 E5.49718
G1 X87.893 Y104.250 E5.50177
G1 X88.191 Y104.922 F7800.000
G1 F1800.000 E4.50177
G92 E0
G1 X90.205 Y92.409 F7800.000
G1 F1800.000 E1.00000
G1 X87.949 Y91.958 F540.000 E1.09575
G1 X85.899 Y90.916 E1.19150
G1 X84.206 Y89.358 E1.28726
G1 X84.082 Y89.158 E1.29706
G1 X82.996 Y87.402 E1.38301
G1 X82.359 Y85.192 E1.47876
G1 X82.341 Y82.892 E1.57451
G1 X82.945 Y80.672 E1.67026
G1 X84.125 Y78.698 E1.76602
G1 X85.794 Y77.115 E1.86177
G1 X87.759 Y76.078 E1.95426
G1 X95.759 Y73.166 E2.30864
G1 X98.827 Y81.594 E2.68199
G1 X99.164 Y83.914 E2.77958
G1 X98.868 Y86.196 E2.87533
G1 X97.967 Y88.312 E2.97109
G1 X96.529 Y90.107 E3.06684
G1 X94.660 Y91.448 E3.16259
G1 X92.499 Y92.235 E3.25834
G1 X90.315 Y92.401 E3.34950
G1 X90.205 Y92.409 E3.35409
G1 X90.250 Y91.668 F7800.000
G1 X88.193 Y91.257 F540.000 E3.44143
G1 X86.323 Y90.306 E3.52876
G1 X84.779 Y88.885 E3.61610
G1 X84.708 Y88.771 E3.62170
G1 X83.675 Y87.101 E3.70343
G1 X83.094 Y85.085 E3.79077
G1 X83.078 Y82.987 E3.87810
G1 X83.628 Y80.963 E3.96543
G1 X84.705 Y79.162 E4.05277
G1 X86.227 Y77.719 E4.14010
G1 X88.058 Y76.752 E4.22629
G1 X95.320 Y74.109 E4.54796
G1 X98.110 Y81.775 E4.88753
G1 X98.421 Y83.920 E4.97777
G1 X98.151 Y86.001 E5.06510
G1 X97.330 Y87.931 E5.15244
G1 X96.018 Y89.569 E5.23977
G1 X94.314 Y90.791 E5.32711
G1 X92.342 Y91.509 E5.41444
G1 X90.360 Y91.660 E5.49718
G1 X90.250 Y91.668 E5.50177
G1 X89.817 Y92.263 F7800.000
G1 F1800.000 E4.50177
G92 E0
G1 X94.409 Y97.323 F7800.000
G1 F1800.000 E1.00000
G1 X96.121 Y95.177 F540.000 E1.11429
G1 X98.595 Y93.985 E1.22859
G1 X101.340 Y93.985 E1.34288
G1 X103.372 Y94.964 E1.43677
G1 X103.814 Y95.177 E1.45717
G1 X105.526 Y97.323 E1.57147
G1 X106.137 Y100.000 E1.68576
G1 X105.526 Y102.677 E1.80006
G1 X103.814 Y104.823 E1.91435
G1 X101.340 Y106.015 E2.02864
G1 X98.595 Y106.015 E2.14294
G1 X96.121 Y104.823 E2.25723
G1 X94.409 Y102.677 E2.37152
G1 X93.798 Y100.000 E2.48582
G1 X94.385 Y97.431 E2.59552
G1 X94.409 Y97.323 E2.60011
G1 X95.089 Y97.651 F7800.000
G1 X96.591 Y95.767 F540.000 E2.70043
G1 X98.763 Y94.721 E2.80074
G1 X101.172 Y94.721 E2.90106
G1 X103.053 Y95.627 E2.98796
G1 X103.344 Y95.767 E3.00137
G1 X104.846 Y97.651 E3.10168
G1 X105.382 Y100.000 E3.20200
G1 X104.846 Y102.349 E3.30232
G1 X103.344 Y104.233 E3.40263
G1 X101.172 Y105.279 E3.50295
G1 X98.763 Y105.279 E3.60326
G1 X96.591 Y104.233 E3.70358
G1 X95.089 Y102.349 E3.80389
G1 X94.553 Y100.000 E3.90421
G1 X95.064 Y97.758 E3.99993
G1 X95.089 Y97.651 E4.00452
G1 X95.769 Y97.978 F7800.000
G1 X97.062 Y96.356 F540.000 E4.09086
G1 X98.930 Y95.457 E4.17719
G1 X101.005 Y95.457 E4.26353
G1 X102.734 Y96.289 E4.34344
G1 X102.873 Y96.356 E4.34987
G1 X104.166 Y97.978 E4.43620
G1 X104.628 Y100.000 E4.52254
G1 X104.166 Y102.022 E4.60888
G1 X102.873 Y103.644 E4.69521
G1 X101.005 Y104.543 E4.78155
G1 X98.930 Y104.543 E4.86789
G1 X97.062 Y103.644 E4.95422
G1 X95.769 Y102.022 E5.04056
G1 X95.307 Y100.000 E5.12690
G1 X95.744 Y98.086 E5.20864
G1 X95.769 Y97.978 E5.21323
G1 X95.401 Y97.341 F7800.000
G1 F1800.000 E4.21323
G92 E0
G1 X103.302 Y129.492 F7800.000
G1 F1800.000 E1.00000
G1 X103.124 Y129.512 F540.000 E1.00745
G1 X102.573 Y128.355 E1.06081
G1 X99.436 Y128.468 E1.19147
G1 X98.973 Y129.661 E1.24473
G1 X98.794 Y129.655 E1.25221
G1 X98.417 Y128.432 E1.30548
G1 X95.300 Y128.088 E1.43604
G1 X94.665 Y129.201 E1.48936
G1 X94.489 Y129.169 E1.49684
G1 X94.296 Y127.902 E1.55015
G1 X91.258 Y127.110 E1.68083
G1 X90.469 Y128.119 E1.73417
G1 X90.300 Y128.062 E1.74160
G1 X90.291 Y126.781 E1.79491
G1 X87.408 Y125.552 E1.92539
G1 X86.476 Y126.437 E1.97891
G1 X86.317 Y126.355 E1.98634
G1 X86.496 Y125.088 E2.03962
G1 X83.819 Y123.451 E2.17025
G1 X82.773 Y124.189 E2.22356
G1 X82.626 Y124.084 E2.23104
G1 X82.989 Y122.858 E2.28428
G1 X80.575 Y120.851 E2.41498
G1 X79.432 Y121.429 E2.46831
G1 X79.303 Y121.305 E2.47575
G1 X79.839 Y120.142 E2.52906
G1 X78.000 Y118.087 E2.64386
G1 X78.408 Y117.665 E2.66832
G1 X84.920 Y123.129 E3.02219
G1 X86.929 Y124.393 E3.12098
G1 X89.328 Y125.105 E3.22515
G1 X91.830 Y125.143 E3.32932
G1 X94.250 Y124.504 E3.43349
G1 X96.408 Y123.236 E3.53766
G1 X98.143 Y121.434 E3.64183
G1 X99.328 Y119.230 E3.74600
G1 X99.794 Y117.147 E3.83485
G1 X100.184 Y117.162 E3.85111
G1 X100.391 Y118.586 E3.91104
G1 X103.886 Y128.188 E4.33638
G1 X103.588 Y128.243 E4.34899
G1 X103.327 Y129.384 E4.39774
G1 X103.302 Y129.492 E4.40233
G1 F1800.000 E3.40233
G92 E0
G1 X126.315 Y110.696 F7800.000
G1 F1800.000 E1.00000
G1 X125.959 Y111.622 F540.000 E1.04126
G1 X126.878 Y112.517 E1.09467
G1 X126.803 Y112.679 E1.10213
G1 X125.526 Y112.548 E1.15555
G1 X123.993 Y115.284 E1.28610
G1 X124.769 Y116.300 E1.33932
G1 X124.669 Y116.450 E1.34680
G1 X123.429 Y116.133 E1.40010
G1 X121.512 Y118.620 E1.53080
G1 X122.131 Y119.738 E1.58399
G1 X122.011 Y119.872 E1.59147
G1 X120.832 Y119.379 E1.64463
G1 X118.571 Y121.554 E1.77527
G1 X119.021 Y122.754 E1.82860
G1 X118.882 Y122.869 E1.83609
G1 X117.788 Y122.207 E1.88934
G1 X115.235 Y124.036 E2.02004
G1 X115.505 Y125.287 E2.07334
G1 X115.352 Y125.381 E2.08080
G1 X114.362 Y124.566 E2.13417
G1 X111.571 Y126.004 E2.26487
G1 X111.657 Y127.279 E2.31806
G1 X111.492 Y127.350 E2.32554
G1 X110.632 Y126.401 E2.37882
G1 X107.660 Y127.415 E2.50953
G1 X107.561 Y128.690 E2.56276
G1 X107.387 Y128.735 E2.57024
G1 X106.674 Y127.673 E2.62350
G1 X104.624 Y128.052 E2.71029
G1 X104.476 Y127.507 E2.73378
G1 X112.475 Y124.596 E3.08811
G1 X114.573 Y123.488 E3.18690
